src/assets/vectors/fa-linkedin.svg

<svg width="17" height="16" viewBox="0 0 17 16" fill="none" xmlns="http://www.w3.org/2000/svg">
<path d="M4.0626 5.19891V16H0.465874V5.19891H4.0626ZM4.29149 1.86376C4.29875 2.39419 4.11528 2.83742 3.74108 3.19346C3.36687 3.5495 2.87459 3.72752 2.26424 3.72752H2.24244C1.64662 3.72752 1.16705 3.5495 0.803748 3.19346C0.440442 2.83742 0.258789 2.39419 0.258789 1.86376C0.258789 1.32607 0.445892 0.881017 0.820097 0.52861C1.1943 0.176203 1.68295 0 2.28604 0C2.88913 0 3.37232 0.176203 3.73563 0.52861C4.09893 0.881017 4.28422 1.32607 4.29149 1.86376ZM16.9999 9.80926V16H13.4141V10.2234C13.4141 9.46049 13.267 8.86285 12.9727 8.43052C12.6784 7.99818 12.2188 7.78202 11.5939 7.78202C11.1362 7.78202 10.7529 7.90736 10.4441 8.15804C10.1353 8.40872 9.90457 8.71935 9.75198 9.08992C9.67205 9.3079 9.63209 9.60218 9.63209 9.97275V16H6.04626C6.06079 13.1008 6.06805 10.7502 6.06805 8.94823C6.06805 7.14623 6.06442 6.07084 6.05715 5.72207L6.04626 5.19891H9.63209V6.76839H9.61029C9.75561 6.53588 9.90457 6.33243 10.0572 6.15804C10.2097 5.98365 10.415 5.79473 10.673 5.59128C10.9309 5.38783 11.247 5.22979 11.6212 5.11717C11.9954 5.00454 12.4114 4.94823 12.8691 4.94823C14.1116 4.94823 15.1107 5.36058 15.8664 6.18529C16.6221 7.00999 16.9999 8.21798 16.9999 9.80926Z" fill="#F0F1F3"/>
</svg>

<svg xmlns="http://www.w3.org/2000/svg" width="17" height="16" viewBox="0 0 17 16" fill="none"><path d="M4.063 5.2V16H.466V5.2h3.597zm.23-3.335c.007.53-.176.974-.55 1.33s-.866.534-1.477.534h-.022c-.596 0-1.075-.178-1.44-.534s-.545-.8-.545-1.33C.26 1.326.446.88.82.53S1.683 0 2.286 0s1.086.176 1.45.53.55.797.556 1.335zM17 9.81V16h-3.586v-5.777c0-.763-.147-1.36-.44-1.793s-.754-.648-1.38-.648c-.458 0-.84.125-1.15.376a2.32 2.32 0 0 0-.692.932c-.08.218-.12.512-.12.883V16H6.046l.022-7.052-.01-3.226-.01-.523h3.586v1.57H9.6a4.74 4.74 0 0 1 .447-.61c.152-.174.358-.363.616-.567a2.83 2.83 0 0 1 .948-.474 4.32 4.32 0 0 1 1.248-.169c1.242 0 2.242.412 2.997 1.237S17 8.218 17 9.81z" fill="#f0f1f3"/></svg>
